.icons/Gruvbox-Plus-Dark/apps/16/frostwire.svg

<svg width="16" height="16" version="1.1" xmlns="http://www.w3.org/2000/svg">
  <defs>
    <style type="text/css" id="current-color-scheme">.ColorScheme-Text { color:#ebdbb2; } .ColorScheme-Highlight { color:#458588; }</style>
  </defs>
  <path class="ColorScheme-Text" fill="currentColor" d="m16 10.08c0-0.05 3e-3 -0.086 3e-3 -0.137v-0.849c-0.825-0.261-2.03-0.614-2.793-1.148 0.582-0.41 1.392-0.806 2.793-1.131v-0.748c0-0.137-8e-3 -0.239-9e-3 -0.37-1.357 0.322-2.452 0.887-3.68 1.662-0.362-0.284-0.589-0.528-0.879-0.823-0.094 0.173-0.322 0.662-0.404 0.791 0.302 0.295 0.428 0.468 0.669 0.643-0.29 0.208-0.294 0.266-0.987 0.878 0.145 0.274 0.224 0.542 0.369 0.809 0.335-0.361 0.589-0.65 1.312-1.13 1.001 0.526 1.86 1.071 3.606 1.553zm-5.833-1.061c-0.119 0.271-0.195 0.453-0.372 0.857 0.682 1.346 0.779 1.92 1.41 3.067 0.269 0.457 0.873 0.13 0.642-0.305-0.638-1.288-1.02-2.204-1.68-3.619zm-5.511 4.07c-0.3 0.51-0.997 0.273-0.607-0.519 0.684-1.518 2.222-5.303 3.055-7.17 0.242-0.565 0.888-0.201 0.696 0.273-0.966 2.234-2.262 5.587-3.144 7.416zm4.182-2.269c-0.263 0.437-0.96 0.126-0.57-0.665 0.684-1.519 2.222-5.304 3.054-7.17 0.243-0.566 0.889-0.202 0.697 0.272-0.966 2.234-2.299 5.735-3.181 7.563zm-1.607-0.286c-0.264 0.584-0.923 0.31-0.534-0.481 0.684-1.518 0.972-2.436 1.805-4.302 0.242-0.565 0.888-0.202 0.696 0.273-0.966 2.233-1.085 2.682-1.967 4.51zm-7.225-4.589c0 0.045-3e-3 0.077-3e-3 0.122v0.824c0.831 0.263 2.042 0.625 2.799 1.155-0.583 0.411-1.395 0.806-2.799 1.132v0.765c0 0.131 7e-3 0.228 9e-3 0.354 1.36-0.322 2.456-0.888 3.685-1.665 0.362 0.285 0.59 0.528 0.879 0.823 0.095-0.173 0.322-0.662 0.405-0.79-0.303-0.296-0.429-0.469-0.67-0.643 0.29-0.208 0.294-0.267 0.988-0.879-0.145-0.273-0.224-0.542-0.369-0.808-0.336 0.36-0.59 0.65-1.313 1.129-0.989-0.52-1.903-1.043-3.611-1.519zm5.808 0.851c0.119-0.27 0.194-0.453 0.372-0.856-0.682-1.347-0.78-1.92-1.411-3.067-0.268-0.457-0.873-0.131-0.641 0.305 0.637 1.288 1.019 2.203 1.68 3.618z"/>
</svg>

<svg xmlns="http://www.w3.org/2000/svg" style="isolation:isolate" width="16" height="16" viewBox="0 0 16 16">
 <defs>
  <style id="current-color-scheme" type="text/css">
   .ColorScheme-Text { color:#ebdbb2; } .ColorScheme-Highlight { color:#458588; }
  </style>
  <linearGradient id="arrongin" x1="0%" x2="0%" y1="0%" y2="100%">
   <stop offset="0%" style="stop-color:#d79921; stop-opacity:1"/>
   <stop offset="100%" style="stop-color:#b57614; stop-opacity:1"/>
  </linearGradient>
  <linearGradient id="aurora" x1="0%" x2="0%" y1="0%" y2="100%">
   <stop offset="0%" style="stop-color:#83a598; stop-opacity:1"/>
   <stop offset="100%" style="stop-color:#b16286; stop-opacity:1"/>
  </linearGradient>
  <linearGradient id="fitdance" x1="0%" x2="0%" y1="0%" y2="100%">
   <stop offset="0%" style="stop-color:#8ec07c; stop-opacity:1"/>
   <stop offset="100%" style="stop-color:#458588; stop-opacity:1"/>
  </linearGradient>
  <linearGradient id="oomox" x1="0%" x2="0%" y1="0%" y2="100%">
   <stop offset="0%" style="stop-color:#458588; stop-opacity:1"/>
   <stop offset="100%" style="stop-color:#928374; stop-opacity:1"/>
  </linearGradient>
  <linearGradient id="rainblue" x1="0%" x2="0%" y1="0%" y2="100%">
   <stop offset="0%" style="stop-color:#b8bb26; stop-opacity:1"/>
   <stop offset="100%" style="stop-color:#076678; stop-opacity:1"/>
  </linearGradient>
  <linearGradient id="sunrise" x1="0%" x2="0%" y1="0%" y2="100%">
   <stop offset="0%" style="stop-color: #fe8019; stop-opacity:1"/>
   <stop offset="100%" style="stop-color: #fabd2f; stop-opacity:1"/>
  </linearGradient>
  <linearGradient id="telinkrin" x1="0%" x2="0%" y1="0%" y2="100%">
   <stop offset="0%" style="stop-color: #83a598; stop-opacity:1"/>
   <stop offset="100%" style="stop-color: #83a598; stop-opacity:1"/>
  </linearGradient>
  <linearGradient id="60spsycho" x1="0%" x2="0%" y1="0%" y2="100%">
   <stop offset="0%" style="stop-color: #fb4934; stop-opacity:1"/>
   <stop offset="25%" style="stop-color: #fabd2f; stop-opacity:1"/>
   <stop offset="50%" style="stop-color: #fe8019; stop-opacity:1"/>
   <stop offset="100%" style="stop-color: #689d6a; stop-opacity:1"/>
  </linearGradient>
  <linearGradient id="90ssummer" x1="0%" x2="0%" y1="0%" y2="100%">
   <stop offset="0%" style="stop-color: #b16286; stop-opacity:1"/>
   <stop offset="20%" style="stop-color: #8ec07c; stop-opacity:1"/>
   <stop offset="50%" style="stop-color: #fabd2f; stop-opacity:1"/>
   <stop offset="100%" style="stop-color: #458588; stop-opacity:1"/>
  </linearGradient>
  <linearGradient id="cyberneon" x1="0%" x2="0%" y1="0%" y2="100%">
    <stop offset="0" style="stop-color:#83a598; stop-opacity:1"/>
    <stop offset="1" style="stop-color:#b16286; stop-opacity:1"/>
  </linearGradient>
 </defs>
 <path style="fill:currentColor" class="ColorScheme-Text" d="M 15.997 10.075 C 15.997 10.025 16 9.989 16 9.938 L 16 9.089 C 15.175 8.828 13.97 8.475 13.207 7.941 C 13.789 7.531 14.599 7.135 16 6.81 L 16 6.062 C 16 5.925 15.992 5.823 15.991 5.692 C 14.634 6.014 13.539 6.579 12.311 7.354 C 11.949 7.07 11.722 6.826 11.432 6.531 C 11.338 6.704 11.11 7.193 11.028 7.322 C 11.33 7.617 11.456 7.79 11.697 7.965 C 11.407 8.173 11.403 8.231 10.71 8.843 C 10.855 9.117 10.934 9.385 11.079 9.652 C 11.414 9.291 11.668 9.002 12.391 8.522 C 13.392 9.048 14.251 9.593 15.997 10.075 L 15.997 10.075 Z M 10.164 9.014 C 10.045 9.285 9.969 9.467 9.792 9.871 C 10.474 11.217 10.571 11.791 11.202 12.938 C 11.471 13.395 12.075 13.068 11.844 12.633 C 11.206 11.345 10.824 10.429 10.164 9.014 Z M 4.653 13.084 C 4.353 13.594 3.656 13.357 4.046 12.565 C 4.73 11.047 6.268 7.262 7.101 5.395 C 7.343 4.83 7.989 5.194 7.797 5.668 C 6.831 7.902 5.535 11.255 4.653 13.084 Z M 8.835 10.815 C 8.572 11.252 7.875 10.941 8.265 10.15 C 8.949 8.631 10.487 4.846 11.319 2.98 C 11.562 2.414 12.208 2.778 12.016 3.252 C 11.05 5.486 9.717 8.987 8.835 10.815 Z M 7.228 10.529 C 6.964 11.113 6.305 10.839 6.694 10.048 C 7.378 8.53 7.666 7.612 8.499 5.746 C 8.741 5.181 9.387 5.544 9.195 6.019 C 8.229 8.252 8.11 8.701 7.228 10.529 L 7.228 10.529 Z M 0.003 5.94 C 0.003 5.985 0 6.017 0 6.062 L 0 6.886 C 0.831 7.149 2.042 7.511 2.799 8.041 C 2.216 8.452 1.404 8.847 0 9.173 L 0 9.938 C 0 10.069 0.007 10.166 0.009 10.292 C 1.369 9.97 2.465 9.404 3.694 8.627 C 4.056 8.912 4.284 9.155 4.573 9.45 C 4.668 9.277 4.895 8.788 4.978 8.66 C 4.675 8.364 4.549 8.191 4.308 8.017 C 4.598 7.809 4.602 7.75 5.296 7.138 C 5.151 6.865 5.072 6.596 4.927 6.33 C 4.591 6.69 4.337 6.98 3.614 7.459 C 2.625 6.939 1.711 6.416 0.003 5.94 L 0.003 5.94 Z M 5.811 6.791 C 5.93 6.521 6.005 6.338 6.183 5.935 C 5.501 4.588 5.403 4.015 4.772 2.868 C 4.504 2.411 3.899 2.737 4.131 3.173 C 4.768 4.461 5.15 5.376 5.811 6.791 Z"/>
</svg>
